X:1
T:Baku, 87.87 D
T:Baku, 87.87 D
T:Axel Edward Bloom, 1901
T:Public Domain Courtesy of the Cyber Hymnal™
C:Axel Edward Bloom, 1901
Z:Public Domain
Z:Courtesy of the Cyber Hymnal™
%%score ( 1 2 ) 3
L:1/8
Q:1/4=90
M:4/4
K:E
V:1 treble 
V:2 treble 
V:3 bass 
V:1
 B,[B,E] | [EG][EG][EG][EG] [EA][EG][DF]E | [Ee]>[Ee] [Ed][Ec] [EB]2 [EG][EG] | %3
 [EB][EB] [Ee]>[Ec] [EB][EG][B,E][DF] | [EG][EG][EA][EG] [DF]2 E[EF] | %5
 [EG][EG][EG][EG] [EA][EG][DF]E | [Ee]>[Ee] [Ed][Ec] [EB]2 [EB][EB] | %7
 [Ec][Ee][Ed][Ec] [EB][EG]E[EF] | [EG][FA][EG][DF] [B,E]2 |] %9
V:2
 B, x | x7 E | x8 | x8 | x6 E x | x7 E | x8 | x6 E x | x6 |] %9
V:3
 [E,G,][E,G,] | [E,B,][E,B,][E,B,][E,B,] [E,C][E,B,][E,A,][E,G,] | %2
 [E,G,]>[E,G,] [E,B,][E,A,] [E,G,]2 [E,B,][E,B,] | %3
 [E,G,][E,G,] [E,C]>[E,A,] [E,G,][E,B,][E,G,][E,A,] | %4
 [E,B,][E,B,][E,C][E,B,] [B,,B,]2 [E,G,][E,A,] | [E,B,][E,B,][E,B,][E,B,] [E,C][E,B,][E,A,][E,G,] | %6
 [E,G,]>[E,G,] [E,B,][E,A,] [E,G,]2 [E,G,][E,G,] | %7
 [A,,A,][A,,C][A,,B,][A,,A,] [E,G,][E,B,][E,G,][E,A,] | [B,,B,][B,,B,][B,,B,][B,,A,] [E,G,]2 |] %9

